public/images/well/shape/8.svg

<svg width="100%" height="100%" preserveAspectRatio="none" viewBox="0 0 132 132" fill="none" xmlns="http://www.w3.org/2000/svg">
<path d="M91.3915 0.466797C86.8164 4.79611 80.9408 6.95284 75.0653 6.95284C69.1898 6.95284 63.695 4.93091 59.1833 0.87911L57.2803 2.78211C52.6338 7.42859 46.5442 9.75183 40.4625 9.75183C34.3809 9.75183 28.2833 7.42859 23.6447 2.78211L21.3374 0.474728L0.00793691 21.8041L2.31535 24.1115C11.6083 33.4045 11.6083 48.462 2.31535 57.7549L0.412332 59.6579C4.31348 64.011 6.4861 69.6645 6.4861 75.54C6.4861 81.4155 4.15488 87.4575 0 91.8661L21.3374 113.203C25.9125 108.874 31.788 106.717 37.6635 106.717C43.539 106.717 49.034 108.739 53.5457 112.791L55.4487 110.888C59.9128 106.424 65.9626 103.918 72.2663 103.918C78.57 103.918 84.628 106.424 89.0842 110.888L91.3915 113.196L112.721 91.8661L110.414 89.5587C101.121 80.2658 101.121 65.2083 110.414 55.9154L112.316 54.0124C108.415 49.6593 106.243 44.0058 106.243 38.1303C106.243 32.2548 108.574 26.2127 112.729 21.8041L91.3915 0.466797Z" fill="#0E0E0E"/>
</svg>

<svg preserveAspectRatio="none" viewBox="0 0 132 132" fill="none" xmlns="http://www.w3.org/2000/svg"><path d="M91.391.467c-4.575 4.33-10.45 6.486-16.326 6.486-5.875 0-11.37-2.022-15.882-6.074L57.28 2.782a23.716 23.716 0 0 1-16.818 6.97 23.703 23.703 0 0 1-16.817-6.97L21.337.475.007 21.805l2.308 2.306c9.293 9.293 9.293 24.351 0 33.644L.412 59.658A23.8 23.8 0 0 1 6.486 75.54c0 5.875-2.331 11.917-6.486 16.326l21.337 21.337c4.576-4.329 10.451-6.486 16.326-6.486 5.876 0 11.371 2.022 15.883 6.074l1.903-1.903a23.773 23.773 0 0 1 33.635 0l2.307 2.308 21.33-21.33-2.307-2.307c-9.293-9.293-9.293-24.35 0-33.644l1.902-1.903a23.8 23.8 0 0 1-6.073-15.882c0-5.875 2.331-11.917 6.486-16.326L91.391.467Z" fill="#0E0E0E"/></svg>
